src/android-phone-landscape.svg

<?xml version="1.0" encoding="utf-8"?>
<!-- Generated by IcoMoon.io -->
<!DOCTYPE svg PUBLIC "-//W3C//DTD SVG 1.1//EN" "http://www.w3.org/Graphics/SVG/1.1/DTD/svg11.dtd">
<svg version="1.1" xmlns="http://www.w3.org/2000/svg" xmlns:xlink="http://www.w3.org/1999/xlink" width="512" height="512" viewBox="0 0 512 512">
<path fill="#000000" d="M480 358.856v-205.713c0-22.631-18.326-41.143-40.728-41.143h-366.544c-22.402 0-40.728 18.512-40.728 41.143v205.713c0 22.632 18.326 41.144 40.728 41.144h366.545c22.401 0 40.727-18.512 40.727-41.144zM112 364v-216h288v216h-288z"></path>
</svg>

<?xml version="1.0" encoding="utf-8"?>
<!-- Generator: Adobe Illustrator 16.2.1, SVG Export Plug-In . SVG Version: 6.00 Build 0)  -->
<!DOCTYPE svg PUBLIC "-//W3C//DTD SVG 1.1//EN" "http://www.w3.org/Graphics/SVG/1.1/DTD/svg11.dtd">
<svg version="1.1" id="Layer_1" xmlns="http://www.w3.org/2000/svg" xmlns:xlink="http://www.w3.org/1999/xlink" x="0px" y="0px"
	 width="512px" height="512px" viewBox="0 0 512 512" enable-background="new 0 0 512 512" xml:space="preserve">
<g id="Icon_6_">
	<g>
		<path d="M480,358.856V153.143C480,130.512,461.674,112,439.272,112H72.728C50.326,112,32,130.512,32,153.143v205.713
			C32,381.488,50.326,400,72.728,400h366.545C461.674,400,480,381.488,480,358.856z M112,364V148h288v216H112z"/>
	</g>
</g>
</svg>
